icons/src/scalable/emblems/safety-symbolic.svg

<svg version="1.1" viewBox="0 0 16 16" xmlns="http://www.w3.org/2000/svg">
 <path d="m2 2c0 9.31 6 13.031 6 13.031s4.5352-2.8165 5.7188-9.6719l0.001953-0.0019531-0.001953-0.0019531c0.12567-0.72884 0.21351-1.5026 0.25391-2.3242 0.0017-0.00159 0.002406-0.0041494 0.003906-0.0058594l-0.003906-0.0039062c0.01623-0.33338 0.027344-0.6725 0.027344-1.0215-0.034272 0-0.065795 0.0034258-0.099609 0.0039062v-0.0039062h-11.701v0.0058594c-0.066748-0.001827-0.1307-0.0058594-0.19922-0.0058594zm1 1h10c-0.015496 0.35115-0.043156 0.69183-0.076172 1.0273l-4.8945 4.8945-2.9688-2.9707-1.0605 1.0645 4.0312 4.0312 4.4551-4.4551c-0.54154 2.1812-1.4208 3.889-2.2832 5.0313-0.982 1.298-1.7391 1.8784-2.2031 2.1934-0.463-0.315-1.2221-0.89536-2.2031-2.1934-1.292-1.71-2.6239-4.68-2.7969-8.623z" fill="#808080"/>
</svg>

<?xml version="1.0" encoding="UTF-8" standalone="no"?>
<svg
   width="16"
   height="16"
   version="1.1"
   id="svg8"
   sodipodi:docname="safety-symbolic.svg"
   inkscape:version="1.1 (c68e22c387, 2021-05-23)"
   xmlns:inkscape="http://www.inkscape.org/namespaces/inkscape"
   xmlns:sodipodi="http://sodipodi.sourceforge.net/DTD/sodipodi-0.dtd"
   xmlns="http://www.w3.org/2000/svg"
   xmlns:svg="http://www.w3.org/2000/svg">
  <sodipodi:namedview
     id="namedview9"
     pagecolor="#ffffff"
     bordercolor="#666666"
     borderopacity="1.0"
     inkscape:pageshadow="2"
     inkscape:pageopacity="0.0"
     inkscape:pagecheckerboard="0"
     showgrid="true"
     showguides="false"
     inkscape:zoom="4"
     inkscape:cx="14.25"
     inkscape:cy="4.125"
     inkscape:window-width="1366"
     inkscape:window-height="704"
     inkscape:window-x="0"
     inkscape:window-y="27"
     inkscape:window-maximized="1"
     inkscape:current-layer="svg8">
    <inkscape:grid
       type="xygrid"
       id="grid826" />
  </sodipodi:namedview>
  <defs
     id="defs12" />
  <path
     id="path2-3"
     style="fill:#808080;fill-opacity:1;marker:none"
     d="M 2 2 C 2 11.31 8 15.03125 8 15.03125 C 8 15.03125 12.535171 12.21475 13.71875 5.359375 L 13.720703 5.3574219 L 13.71875 5.3554688 C 13.844424 4.6266297 13.932256 3.8528916 13.972656 3.03125 C 13.974356 3.02966 13.975062 3.0271006 13.976562 3.0253906 L 13.972656 3.0214844 C 13.988886 2.6881047 14 2.3489873 14 2 C 13.965728 2 13.934205 2.0034258 13.900391 2.0039062 L 13.900391 2 L 2.1992188 2 L 2.1992188 2.0058594 C 2.1324713 2.0040324 2.0685212 2 2 2 z M 3 3 L 13 3 C 12.984504 3.3511531 12.956844 3.6918268 12.923828 4.0273438 L 8.0292969 8.921875 L 5.0605469 5.9511719 L 4 7.015625 L 8.03125 11.046875 L 12.486328 6.5917969 C 11.944783 8.773046 11.065518 10.480759 10.203125 11.623047 C 9.221125 12.921047 8.464 13.501406 8 13.816406 C 7.537 13.501406 6.777875 12.921047 5.796875 11.623047 C 4.504875 9.9130459 3.173 6.943 3 3 z " />
</svg>
